Yaru++/actions/16/object-order-raise.svg

<svg viewBox="0 0 16 16" xmlns="http://www.w3.org/2000/svg"><path d="m8 2v1h6v-1zm-6 2v1h12v-1zm7 2v1h5v-1zm-4.4980469.0019531-.1894531.21875-2.3125 2.5.65625.6875 1.34375-1.4375v6.0292969h1.0019531v-6.0292969l1.34375 1.4375.65625-.6875-2.3125-2.5zm3.4980469 1.9980469v1h6v-1zm1 2v1h5v-1zm-2 2v1h7v-1z" fill="#808080"/></svg>

<svg xmlns="http://www.w3.org/2000/svg" viewBox="0 0 16 16">
 <defs>
  <style id="current-color-scheme" type="text/css">
   .ColorScheme-Text { color:#808080; }
  </style>
 </defs>
 <path fill="#808080" class="ColorScheme-Text" d="M 8 2 L 8 3 L 14 3 L 14 2 L 8 2 z M 2 4 L 2 5 L 14 5 L 14 4 L 2 4 z M 9 6 L 9 7 L 14 7 L 14 6 L 9 6 z M 4.5019531 6.0019531 L 4.3125 6.2207031 L 2 8.7207031 L 2.65625 9.4082031 L 4 7.9707031 L 4 14 L 5.0019531 14 L 5.0019531 7.9707031 L 6.3457031 9.4082031 L 7.0019531 8.7207031 L 4.6894531 6.2207031 L 4.5019531 6.0019531 z M 8 8 L 8 9 L 14 9 L 14 8 L 8 8 z M 9 10 L 9 11 L 14 11 L 14 10 L 9 10 z M 7 12 L 7 13 L 14 13 L 14 12 L 7 12 z"/>
</svg>
